svg/color/slay.svg

<svg width="32" height="32" viewBox="0 0 32 32" fill="none" xmlns="http://www.w3.org/2000/svg">
<rect width="32" height="32" rx="16" fill="#FFE600"/>
<path d="M19.2393 9.68066L11.25 13.2891L12.4395 13.8496L20.3896 10.1992L27.5576 13.4297L16.2188 18.5391L13.1816 17.1699L21.4004 13.4297L20.3506 12.9404L12.0449 16.6582L4.87988 13.4297L16.2188 8.32031L19.2393 9.68066Z" fill="#0E0F12"/>
<path d="M15.8194 23.6806L4.48047 18.4311L7.49018 17.0312L15.8194 20.8809L24.1486 17.0312L27.0883 18.5011L15.8194 23.6806Z" fill="#0E0F12"/>
</svg>

<svg xmlns="http://www.w3.org/2000/svg" width="32" height="32" fill="none" viewBox="0 0 32 32"><rect width="32" height="32" fill="#FFE600" rx="16"/><path fill="#0E0F12" d="m19.24 9.68-7.99 3.61 1.19.56 7.95-3.65 7.168 3.23-11.34 5.11-3.036-1.37 8.218-3.74-1.05-.49-8.305 3.718L4.88 13.43l11.339-5.11z"/><path fill="#0E0F12" d="M15.82 23.68 4.48 18.432l3.01-1.4 8.33 3.85 8.329-3.85 2.94 1.47z"/></svg>
